X:55
T:Aada (CT 373)
R:Aada
C:Tradicional
S:Msica Tradicional Asturiana, (C) Tello & Tito. Asturies, 2001.
S:http://pagina.de/MusTradAst <telloytito@asturies.org>
N:Cancin de cuna (Aada), dictada por Mercedes Garca Garca, de treinta y cuatro aos, de Cabaaquinta, ayuntamiento de Ayer.
A:Asturies
O:Cabaaquinta (Ayer)
Z:Cancioneru de Torner 373
M:2/4
L:1/8
Q:1/4=80
K:G
|:dd ed|(cA) G2|BB dc|A2 G2|
dd ed|(cA) G2|BB dc|
[M:3/4]
A2G2 A/2A/2A/2A/2|
[M:2/4]
DDEF|G2 A/2A/2A/2A/2|
DD EF|G2 z2:|
W:El que est a la puerta
W:que nun entre agora,
W:que est el padre en casa
W:del neu que llora.
W:Ea, mio nen,
W:agora non,
W:ea, mio nen,
W:que est el papn.
W:
W:Vlgante mil diablos,
W:que mal entendis:
W:que volvis maana,
W:que tiempu tenis.
W:Ea, mio nen,
W:agora non,
W:ea, mio nen,
W:que est el papn.
W:
